svg/fluentui-system-icons/ic_fluent_document_catch_up_24_filled.svg

<svg width="24" height="24" viewBox="0 0 24 24" fill="none" xmlns="http://www.w3.org/2000/svg">
<path d="M12 2H6C4.89543 2 4 2.89543 4 4V12L4.60158 12L5.89588 9.04742C6.47857 7.71818 8.28526 7.65924 8.99617 8.84319L9.02482 8.89091L9.11004 9.06651L10.8376 13.3806L11.1835 12.8715C11.4494 12.4133 11.907 12.1028 12.4246 12.0213L12.4778 12.0129L12.662 11.9999H14.697C15.6635 11.9999 16.447 12.7834 16.447 13.7499C16.447 14.6272 15.8022 15.3528 14.9596 15.4802L14.9083 15.488L14.7306 15.4999H13.6902L12.0257 18.1026C11.3624 19.2909 9.67453 19.2797 8.99916 18.1463L8.97129 18.0996L8.88833 17.928L7.42567 14.2754L7.34797 14.4526C7.12277 14.9664 6.66961 15.3329 6.13806 15.4554C6.10262 15.4635 6.06672 15.4706 6.03056 15.4766L5.9749 15.4858L5.78195 15.5L4 15.5V20C4 21.1046 4.89543 22 6 22H18C19.1046 22 20 21.1046 20 20V10H14C12.8967 10 12.0021 9.1067 12 8.00395L12 2ZM14 8.5C13.7239 8.5 13.5 8.27614 13.5 8V2.5L19.5 8.5H14ZM5.25508 13L2.75 13L2.64718 13.0069L2.63692 13.0085C2.27619 13.063 2 13.3744 2 13.75C2 14.1642 2.33579 14.5 2.75 14.5L5.7452 14.5L5.85645 14.4918L5.86759 14.49C5.88306 14.4874 5.89841 14.4844 5.9136 14.4809C6.14148 14.4284 6.33564 14.2712 6.4321 14.0511L7.46737 11.6894L9.80375 17.524L9.85261 17.6251L9.85818 17.6344C10.1499 18.124 10.8889 18.12 11.1641 17.5937L13.1428 14.4999H14.697L14.7998 14.493L14.8101 14.4915C15.1708 14.4369 15.447 14.1255 15.447 13.7499C15.447 13.3357 15.1112 12.9999 14.697 12.9999H12.6971L12.5909 13.0074L12.5802 13.0091C12.3493 13.0454 12.1462 13.1882 12.0348 13.3979L10.6081 15.4977L8.1949 9.4712L8.14458 9.36751L8.13885 9.35798C7.8355 8.85277 7.06044 8.88157 6.81175 9.4489L5.25508 13ZM5.7452 14.5H4Z" fill="#212121"/>
</svg>

<svg xmlns="http://www.w3.org/2000/svg" width="24" height="24"><path d="M12 2H6a2 2 0 0 0-2 2v8h.602l1.294-2.953c.583-1.329 2.39-1.388 3.1-.204l.029.048.085.176 1.728 4.314.346-.51a1.75 1.75 0 0 1 1.24-.85l.054-.008.184-.013h2.035a1.75 1.75 0 0 1 .263 3.48l-.052.008-.177.012h-1.04l-1.665 2.603c-.664 1.188-2.351 1.177-3.027.043l-.028-.046-.083-.172-1.462-3.653-.078.178a1.75 1.75 0 0 1-1.317 1.024l-.056.009-.193.014H4V20a2 2 0 0 0 2 2h12a2 2 0 0 0 2-2V10h-6a2 2 0 0 1-2-1.996V2Zm2 6.5a.5.5 0 0 1-.5-.5V2.5l6 6H14ZM5.255 13H2.75l-.103.007-.01.002A.75.75 0 0 0 2.75 14.5h2.995l.111-.008.012-.002a.75.75 0 0 0 .565-.439l1.034-2.362 2.337 5.835.049.101.005.01a.75.75 0 0 0 1.306-.041l1.979-3.094h1.554l.103-.007.01-.002A.75.75 0 0 0 14.697 13h-2l-.106.007-.01.002a.75.75 0 0 0-.546.389l-1.427 2.1L8.195 9.47l-.05-.103-.006-.01a.75.75 0 0 0-1.327.09L5.255 13Zm.49 1.5H4Z"/></svg>
